src/components/Icon/utils/svgsOptimized/document.svg

<?xml version="1.0" encoding="utf-8"?><svg width="24" height="24" xmlns="http://www.w3.org/2000/svg" viewBox="0 0 24 24"><path d="M14 4H6v16h12V8l-4-4Zm3 15H7V5h6v4h4v10Z"/></svg>

<svg width="24" height="24" viewBox="0 0 24 24"  xmlns="http://www.w3.org/2000/svg">
<path d="M14 4H6V20H18V8L14 4ZM17 19H7V5H13V9H17V19Z" />
</svg>
